X:1
T:God is our hope and strength - Blow
T:James Gibb editions
T:#
%%score { 1 | 2 } { 3 | 4 } { 5 | 6 } { 7 | 8 }
L:1/8
Q:1/4=100
M:4/4
K:Eb
V:1 treble nm="Soprano" snm="S"
V:2 treble 
V:3 treble nm="Alto" snm="A"
V:4 treble 
V:5 treble-8 nm="Tenor " snm="T"
V:6 treble-8 
V:7 bass nm="Bass" snm="B"
V:8 bass 
V:1
"^Psalm 46 vv 1-3, 5""^God is our hope and strength""^John Blow\n(1648-1708)" B6 =AA | B2 F2 G3 F | %2
w: God is our|hope and strength, a|
 G_ABF G3 (F | E4) F2 F2 |[M:4/4] z4 z2 B2- | B2 dd e4- | e2 (dc) B4 | z8 | f6 =ee | f2 c2 d2 B2 | %10
w: ve- ry pre- sent help in|* trou- ble,|God|* is our hope|* and * strength||God is our|hope and strength, and|
 e4 z4 | z2 e4 dd | e2 B2 B4 | z2 B2 BB A2- | A2 G2 F2 (Bc) | c4 d4 ||"^Verse" z2 c4 dd | %17
w: strength,|God is our|hope and strength,|a ve- ry pre\-|* sent help in *|trou- ble.|There- fore will|
 c3 c d2 de | f2 (e/d/c/B/) =A2 F2 | z8 | z8 | z2 c3 c cc/c/ | c2 _d4 B2 | =E4 z2 e2- | %24
w: we not fear that the|earth be * * * mo- ved.|||Though the wa- ters there-|of rage and|swell, rage|
 e2 c2 =A2 z2 | z8 | z4 z2 c2- | cc cc/c/ _d4- | d2 e4 =A2- | A2 B2 =A4 | z"^Chorus" ddd f3 B | %31
w: * and swell,||Though|* the wa- ters there- of|* rage, rage|* and swell,|and though the moun- tains|
 G4 edcc | B3 B B4 | z2 fe d2 B2 | e3 d c4 | z4 BB e2- | e2 d2 c3 d | d4 z4 | z2 B3 BGG | %39
w: shake at the tem- pest|of the same,|at the tem- pest|of the same,|at the tem\-|* pest of the|same.|God is in the|
 B3 B B2 e2- | eecc e4- | e2 e2 eAGG | A3 A B2 c2- | ccBB c2 F2 | F2 z2 z2 c2- | cc=AA c4 | %46
w: midst of her, God|* is in the midst|* of her, is in the|midst of her, God|* is in the midst of|her, God|* is in the midst,|
 z cc=A c3 c | c6 cc | c3 c c4 | z8 | z2 c4 =A2 | f3/2 (e/ d3/2) (c/ B3/2) (A/ G)G | c2 c2 z4 | %53
w: is in the midst of|her, in the|midst of her.||There- fore|shall she * not * be * re-|mo- ved,|
 B4 c4 | d3 d e2 e2- | ec f2 f4 | z2 B3 G c2 | c3 F =A2 c2- | c2 d2 c4 | d2 z2 z4 | z8 | z2 B4 c2 | %62
w: There- fore|shall she not be|* re- mo- ved,|shall she not|be re- mov'd. God|* shall help|her.||God shall|
 B4 c4 | z2 f2 f3 B | B4 z2 e2- | e2 de c4 |[Q:1/4=97] d4[Q:1/4=92] z2[Q:1/4=90] d2 | %67
w: help her,|there- fore shall|she not|* be re- mo-|ved, re-|
[Q:1/4=87] (e3[Q:1/4=84] d)[Q:1/4=84] !fermata!d8 |] %68
w: mo\- * ved.|
V:2
 z8 | z8 | z4 B4- | B2 =AA B2 F2 |[M:4/4] G3 E FGAF | B3 A G2 E2 | z2 B2 GAB G | c3 c B2 B2 | %8
w: ||God|* is our hope and|strength a ve- ry pre- sent|help in trou- ble,|a ve- ry pre- sent|help in trou- ble,|
 z4 B4- | B2 =AA B2 F2 | G3 F GABF | c3 e (dc B2) | B4 z4 | z2 d2 e3 A | B3 e c2 B2- | B2 =A2 B4 || %16
w: God|* is our hope and|strength, a ve- ry pre- sent|help in trou\- * *|ble,|a ve- ry|pre- sent help in|* trou- ble.|
"^Verse" z2 =A4 BB | B2 =A2 B2 FF | B2 c2 c2 c2 | z8 | z8 | z4 z2 =A2- | A=A AA/A/ B4- | %23
w: There- fore will|we not fear that the|earth be mo- ved.|||Though|* the wa- ters there- of|
 B2 _A4 _G2 | F4 z4 | z8 | z8 | z2 =A3 A AA/A/ | B6 e2- | e2 _d2 c4 | z8 | z BBB e3 A | F4 z2 ed | %33
w: * rage and|swell,|||Though the wa- ters there-|of rage,|* and swell,||and though the moun- tains|shake at the|
 c2 =A2 B3 B | B4 z eee | f3 F B2 BB | c2 B2 B2 =A2 | B4 z4 | z4 z2 G2- | GGFF G3 G | A2 c3 cBB | %41
w: tem- pest of the|same, and though the|moun- tains shake at the|tem- pest of the|same.|God|* is in the midst of|her, God is in the|
 c2 A2 e4 | z8 | z8 | z2 B3 B=AA | Gc c2 z =AGB | =AF A2 z2 c2- | cccB =A2 GA | G3 F F2 c2- | %49
w: midst of her,|||God is in the|midst of her, is in the|midst of her, God|* is in the midst, in the|midst of her. There\-|
 c=A d3 B e2 | e3 c f3/2 (e/ d>)c | B2 B2 z4 | z8 | z2 E4 F2- | F2 F>F G4 | A>G F4 B2 | %56
w: * fore shall she not,|shall she not be * re-|mo- ved,||there- fore|* shall she not|be re- mo- ved,|
 B2 d2 e2 e2- | ec f2 F2 =A2- | A2 (B3 =A) A2 | B4 z4 | z8 | z2 G4 (A2- | AG) G2 A2 c2 | =A3 A B4 | %64
w: shall she not be|* re- mo- ved. God|* shall * help|her,||God shall|* * help her, there-|fore shall she,|
 z2 e2 e3 B | F2 B3 B =A2 | B4 B3 B | B4 !fermata!B8 |] %68
w: there- fore shall|she not be re-|mo- ved, re-|mo- ved.|
V:3
 z8 | z8 | z8 | E6 D D |[M:4/4] E2 B,2 B,2 z F | GAGF E3 F | (DC) B,2 z2 B,2 | F4- FGFE | %8
w: |||God is our|hope and strength a|ve- ry pre- sent help in|trou\- * ble, a|ve\- * ry pre- sent|
 DB, F4 B,2 | z8 | z4 B4- | B2 =AA B2 F2 | G3 F G_ABF | G3 F E4 | F2 B,2 F4- | F4 F4 || %16
w: help in trou- ble.||God|* is our hope and|strength, a ve- ry pre- sent|help in trou-|ble, in trou\-|* ble.|
"^Verse" z2 F4 DD | E2 F2 B,2 B,C | D2 E2 F2 F2 | z8 | z8 | z4 z2 F2- | FF FF/F/ _G4 | C4 E3 E | %24
w: There- fore will|we not fear that the|earth be mo- ved.|||Though|* the wa- ters there- of|rage, rage and|
 =A,4 z4 | z8 | z8 | z2 F3 F FF/F/ | _G4 C4 | F2 B,2 F4 | z4 z"^Chorus" FFF | G3 G E2 AA | %32
w: swell,|||Though the wa- ters there-|of rage,|rage and swell,|and though the|moun- tains shake at the|
 F2 F2 z2 z C | CC F3 F D2 | z2 GF E2 C2 | F3 E D2 EE | C2 D2 F3 F | D4 z2 G2- | GGFF G2 E2 | %39
w: tem- pest, and|though the moun- tains shake|at the tem- pest|of the same, at the|tem- pest of the|same. God|* is in the midst of|
 B,4 z4 | z2 A3 AEE | A2 C2 E4- | E4 z2 E2- | EEDD F3 F | F4 z4 | z2 F3 F=EC | F4- FFGC | %47
w: her,|God is in the|midst of her,|* God|* is in the midst of|her,|God is in the|midst, * is in the|
 C2 z G F2 (GF) | (=ED) C2 C4 | F4 D2 B3/2 (A/ | G3/2) (F/ E3/2) (D/ C)C F2 | F4 z2 B,2 | %52
w: midst, is in the *|midst * of her.|There- fore shall she|* not * be * re- mo-|ved, shall|
 C3 C D3 B, | E2 E2 z2 C2 | F3 B, E2 E2 | E3 C F4 | F2 F>F G2 G2- | GA F2 F2 z2 | z8 | %59
w: she not be re-|mo- ved, there-|fore shall she not|be re- mo-|ved, shall she not be|* re- mo- ved,||
 z2 F2 G2 A>G | F2 F3 E D2 | E2 E4 C2 | E4 A,4 | z2 F4 D2- | DB, E2 E2 E2- | EC F2 F3 =A | %66
w: there- fore shall she|not be re- mo-|ved. God shall|help her,|there- fore|* shall she not be|* re- mo- ved, shall|
 G2 F3 B, F2 | (G3 F) !fermata!F8 |] %68
w: she not be re-|mo\- * ved.|
V:4
 z8 | z8 | z8 | z8 |[M:4/4] z8 | z8 | F6 =E E | F2 C2 D3 E | FGFE D2 B,2 | F3 F z2 B,2- | %10
w: ||||||God is our|hope and strength, a|ve- ry pre- sent help in|trou- ble. God|
w: ||||||||||
 B,2 B>A G2 F2 | E3 C FEFB, | E3 D B,2 B,2 | z2 B,2 EDCE | D2 G2 C2 DE | (F3 E) D4 || z8 | z8 | %18
w: * is our hope and|strength, a ve- ry pre- sent|help in trou- ble,|a ve- ry pre- sent|help in trou- ble, in|trou\- * ble.|||
w: ||||||||
 z4 z C=A,F, | F3 E D3 C | B,B, G3 F F2- | F2 =E>E F4 | z8 | z8 | z2 F3 F FF/F/ | _G6 A2- | %26
w: and though the|hills be car- ri-|ed in- to the midst|* of the sea.|||Though the wa- ters there-|of rage,|
w: ||||||||
 A2 F4 C2 | E2 z2 z4 | z8 | z8 | z2 z"^Chorus" F FF B2- | BG E4 FE | D2 B,2 G3 F | F4 z4 | %34
w: * rage and|swell,|||and though the moun\-|* tains shake at the|tem- pest of the|same,|
w: ||||||||
 z2 z E EE A2- | AG F4 GG | C2 F2 F3 F | F4 z2 E2- | EEDD E3 B, | EE F3 E E2 | z8 | z4 E3 E | %42
w: and though the moun\-|* tains shake at the|tem- pest of the|same. God|* is in the midst, is|in the midst of her,||God is|
w: ||||||||
 CC E4 G2 | F2 z2 F3 F | DD F3 CFF | =EC F2 z4 | z4 z2 C2- | CF=EC FCEF | F2 =E2 F4 | z8 | z8 | %51
w: in the midst of|her, God is|in the midst, is in the|midst of her,|God|* is in the midst, is in the|midst of her.|||
w: |||||||||
 F4 G3 G | A2 F3 F B2 | E2 B,2 z2 F2- | F2 D2 B3/2 (A/ G>)(F | E3/2 (D/ C>)B, =A,3/2 G,/ F,2) | %56
w: There- fore shall|she not be re-|mo- ved, there\-|* fore shall she * not||
w: ||||* be * re- mo- ved. *|
 z8 | z4 z2 F2- | F2 D2 F4 | B,4 z2 E2- | E2 C2 F2 B,2 | z8 | z2 E2 C3 C | F4 z4 | z2 B2 G3 G | %65
w: |God|* shall help|her, God|* shall help her,||there- fore shall|she,|there- fore shall|
w: |||||||||
 F2 D2 F3 E | D2 B,2 z2 F2 | (E3 F) !fermata!F8 |] %68
w: she not be re-|mo- ved, re-|mo\- * ved.|
w: |||
V:5
 z8 | z4 e4- | e2 dd e2 B2 | c3 c BcB A |[M:4/4][K:treble-8] G2 E2 B3 B | z2 d2 cdec | f3 e d2 B2 | %7
w: |God|* is our hope and|strength, a ve- ry pre- sent|help in trou- ble,|a ve- ry pre- sent|help in trou- ble,|
 z4 B4- | B2 =AA B3 c | d2 z F Bcdd | e3 (d/c/) B3 B | z4 z2 B2- | B2 EE B3 B | B2 d2 cdec | %14
w: God|* is our hope and|strength, a ve- ry pre- sent|help in * trou- ble,|God|* is our hope and|strength, a ve- ry pre- sent|
 B2 (e4 d2) | c4 B4 || z8 |[M:4/4][K:treble-8] z8 | z4 z2 z =A | BF d3 c B2- | BBed c3 d | %21
w: help in *|trou- ble.|||and|though the hills be car\-|* ri- ed in- to the|
 B2 B>c =A4 | z8 | z8 | z4 z2 d2- | dd dd/d/ e4 | f4 =A3 A | c2 z2 z4 | z8 | z4 z"^Chorus" ccc | %30
w: midst of the sea.|||Though|* the wa- ters there- of|rage, rage and|swell,||and though the|
[M:4/4][K:treble-8] d3 d B4- | B4 z4 | fe d2 B2 e2- | ed c2 z2 z B | BB e3 d c2- | c2 =AA B4 | %36
w: moun- tains shake||at the tem- pest of|* the same, and|though the moun- tains shake|* at the tem-|
 =A2 F4 F2 | F4 z4 | z4 z2 e2- | eedd e2 B2 | c4 z4 | z2 c3 cBB | c3 c B2 E2 | F3 F F3 F | B4 z4 | %45
w: pest of the|same.|God|* is in the midst of|her,|God is in the|midst of her, is|in the midst of|her,|
 z4 z2 c2- | cc=AF cF c2- | ccc=e c2 z F | G2 c2 c4 | z8 | z8 | z4 z2 e2- | e2 c2 f2 d2 | %53
w: God|* is in the midst of her,|* is in the midst, the|midst of her.|||There\-|* fore shall she|
 g3/2 (f/ e3/2) (d/ c3/2) (B/ =A3/2) (G/ | F4) z4 | z2 c4 d2- | dB f2 B3 G | c2 c4 F2 | z8 | %59
w: not be * re\- * mo\- * ved,||there- fore|* shall she not be|re- mo- ved,||
 z2 d2 e2 e>(d | c3/2) (B/ =A3/2) (G/ F2) F2 | B2 B2 z4 | z8 | z4 z2 f2 | g3 e e3 d | c2 B2 c2 F2 | %66
w: there- fore shall she|* not * be * re-|mo- ved,||there-|fore shall she not|be re- mo- ved,|
 z2 B>B e2 d>c | B4 !fermata!B8 |] %68
w: shall she not be re-|mo- ved.|
V:6
 z8 | z8 | z8 | z8 |[M:4/4][K:treble-8] z8 | z8 | z4 B4- | B2 =AA B2 F2 | F2 z c dedB | %9
w: ||||||God|* is our hope and|strength, a ve- ry pre- sent|
 _AG F2 F2 B2- | B2 GG B2 F2 | G3 E FGAF | B3 A (G2 F2) | E2 z2 z2 c2 | FFGG =A2 F2 | F4 F4 || z8 | %17
w: help in trou- ble, God|* is our hope and|strength, a ve- ry pre- sent|help in trou\- *|ble, a|ve- ry pre- sent help in|trou- ble.||
[M:4/4] x8 | x8 | x8 | x8 | x8 | x8 | x8 | x8 | x8 | x8 | x8 | x8 | x8 | %30
w: |||||||||||||
[M:4/4][K:treble-8] z4 z2 z"^Chorus" B | BB e3 E A2 | z4 ed c2 | =A2 F3 F B2 | z BBB c3 B | %35
w: and|though the moun- tains shake|at the tem-|pest of the same,|and though the moun- tains|
 =A2 _de f2 B2 | f4- f (e/d/ c2) | B4 z4 | z4 B3 B | GG B3 G B2 | e3 e cc e2- | ec e2 z2 e2- | %42
w: shake at the tem- pest|of * the * *|same.|God is|in the midst of her,|God is in the midst|* of her, God|
 eeAA e3 d | cf f3 ece | d2 B2 c4 | z4 c3 c | =AAcF A2 G2 | =A3 G AF c2- | c2 G2 =A4 | z4 z2 B2- | %50
w: * is in the midst of|her, is in the midst of|her, of her,|God is|in the midst of her, is|in the midst of her,|* of her.|There\-|
 BG c2 c=A d2- | de f2 B4 | z8 | z4 _A2 =A2- | AF B2 B3 G | c2 c4 F2 | %56
w: * fore shall she not be|* re- mo- ved,||there- fore|* shall she not be|re- mo- ved,|
 z2 d3/2 (c/ B3/2) (A/ G>)(F | E>)D C2 F4 | z8 | z2 B2 B2 c2- | cF c3 =A B2 | B2 B2 z4 | %62
w: shall she * not * be|* re- mo- ved,||there- fore shall|* she not be re-|mo- ved,|
 z4 e2 c2- | cc f2 B4 | B3 E B2 B2 | z2 f3 ecf | B6 B2- | BA G2 !fermata!B8 |] %68
w: there- fore|* shall she not|be re- mo- ved,|there- fore shall she|not be|* re- mo- ved.|
V:7
 z8 | z8 | z8 | z8 |[M:4/4] z8 | B,6 =A,A, | B,2 F,2 G,3 G, | F,G,F,E, D,2 B,,2 | F,4 B,,2 z2 | %9
w: |||||God is our|hope and strength, a|ve- ry pre- sent help in|trou- ble,|
 z8 | E,6 D,D, | E,2 C,2 B,,3 B, | G,F,G,_A, B,4 | z2 B,2 G,E,A,G, | F,2 E,2 F,4- | F,4 B,,4 || %16
w: |God is our|hope and strength, a|ve- ry pre- sent help,|a ve- ry pre- sent|help in trou\-|* ble.|
 z8 |[M:4/4] z8 | z4 z2 z F, | D,B,, B,3 A, G,2- | G,F,E,E, A,3 B, | G,2 C,>C, F,4 | z8 | z8 | %24
w: ||and|though the hills be car\-|* ri- ed in- to the|midst of the sea.|||
[M:4/4] x8 | x8 | x8 | x8 | x8 | x8"^Chorus" |[M:4/4] z4 z"^Chorus" B,B,B, | E3 G, A,4 | %32
w: ||||||and though the|moun- tains shake|
 z2 B,A, G,2 E,2 | F,3 F, B,,4 | z4 z A,,A,,A,, | _D,3 C, B,,2 G,,G,, | =A,,2 B,,2 F,,3 F,, | %37
w: at the tem- pest|of the same,|and though the|moun- tains shake at the|tem- pest of the|
 B,,2 B,3 B,G,G, | B,3 B,, E,4 | z8 | z2 A,3 A,G,G, | A,3 (G,/F,/) E,4 | z2 A,2 G,2 C2 | %43
w: same. God is in the|midst of her,||God is in the|midst of * her,|is in the|
 =A,2 B,3 B,A,A, | B,2 D,2 F,4 | z8 | z4 C3 C | =A,F,C=E, F,=A,,C,F,, | C,3 C, F,2 F,2- | %49
w: midst, God is in the|midst of her,||God is|in the midst of her, is in the|midst of her. There\-|
 F,2 D,2 B,3/2 (A,/ G,3/2) (F,/ | E,3/2) (D,/ C,>)B,, =A,,3/2 (G,,/ F,,2) | z4 z2 E,2- | %52
w: * fore shall she * not|* be * re- mo- ved, *|there\-|
 E,C, F,>E, D,3/2 (C,/ B,,>)A,, | G,,E,, z2 z4 | z2 B,4 E,2 | %55
w: * fore shall she not be * re-|mo- ved,|there- fore|
 C3/2 (B,/ =A,3/2) (G,/ F,3/2) (E,/ D,>)C, | B,,2 B,,2 z4 | z8 |[M:4/4] z8 | z2 B,2 G,2 C>(B, | %60
w: shall she * not * be * re-|mo- ved,|||there- fore shall she|
 =A,3/2) (G,/ F,3/2) (E,/ D,3/2) (C,/ B,,>)(A,, | G,,3/2) (F,,/ E,,2) z4 |[M:4/4] z4 z2 A,2 | %63
w: * not * be * re\- * mo\-|* ved, *|there-|
 C3 C F,4 | B,3 G, E,4 | F,6 F,2 | z2 B,>A, G,2 F,B,, | E,4 !fermata!B,,8 |] %68
w: fore shall she|not be re-|mo- ved,|shall she not be re-|mo- ved.|
V:8
 z8 | z8 | z8 | z8 |[M:4/4] E,6 D,D, | E,2 B,,2 C,4 | z2 B,,2 B,3 B, | C2 F,2 B,3 C | %8
w: ||||God is our|hope and strength,|a ve- ry|pre- sent help in|
 (D2 C2) B,2 G,2 | F,4 B,,4 | z8 | z8 | z2 E,4 D,D, | E,2 B,,2 C,3 C, | D,D,E,E, =A,,2 B,,2 | %15
w: trou\- * ble, in|trou- ble,|||God is our|hope and strength, a|ve- ry pre- sent help in|
 F,,4 B,,4 || z8 |[M:4/4] x8 | x8 | x8 | x8 | x8 | x8 | x8 |[M:4/4] z4 z2[I:staff -1] B,2- | %25
w: trou- ble.|||||||||Though|
 B,B, B,B,/B,/ _C4 | D,4 F,3 F, | =A,,2[I:staff +1] z2 z4 | z8 | z4 z[I:staff -1] F,F,F, | %30
w: * the wa- ters there- of|rage, rage and|swell,||and though the|
[M:4/4][I:staff +1] B,3 B, D,4 | z2 E,E, C,2 A,,2 | B,,3 B,, E,4 | z4 z2 B,A, | G,2 E,2 A,3 G, | %35
w: moun- tains shake|at the tem- pest|of the same,|at the|tem- pest of the|
 F,6 G,G, | F,2 F,2 F,3 F, | B,,4 z4 | z4 z2 E,2- | E,E,B,,B,, E,3 E, | A,,4 z4 | z2 A,3 A,E,E, | %42
w: same, at the|tem- pest of the|same.|God|* is in the midst of|her,|God is in the|
 A,2 C,2 E,2 C,C, | F,2 B,,2 F,4 | z8 | z8 | z2 F,3 F,=E,C, | F,=A,, C,2 z F,=E,A,, | C,3 C, F,,4 | %49
w: midst of her, in the|midst of her,|||God is in the|midst of her, is in the|midst of her.|
 z8 | z4 F,4 | D,2 B,>A, G,3/2 (F,/ E,>)D, | C,3/2 (B,,/ =A,,2) z2 B,2- | %53
w: |There-|fore shall she not be * re-|mo- ved, * there\-|
 B,2 G,2 A,3/2 (G,/ F,>)(E, | D,3/2) (C,/ B,,>)A,, G,,3/2 (F,,/ E,,2) | z4 F,4 | %56
w: * fore shall she * not|* be * re- mo- ved, *|there-|
 D,2 B,3/2 (A,/ G,3/2) (F,/ E,>)(D, | C,>)B,, =A,,3/2 (G,,/ F,,2) z2 |[M:4/4] x8 | x8 | x8 | x8 | %62
w: fore shall she * not * be|* re- mo- ved, *|||||
[M:4/4] z4 z2 A,2 | F,3 F, D,4 | E,4 G,,4 | (=A,,2 B,,2) F,,4 | B,,4 z2 (B,,>A,,) | %67
w: there-|fore shall she|not be|re\- * mo-|ved, re\- *|
 (G,,>F,, E,,2) !fermata!B,,8 |] %68
w: mo\- * * ved.|

